X:0
T:Miss Ada MacDougall
Z:Jack Campin <http://www.campin.me.uk/> version 1.0 September 2001
C:Pipe-Major G.S. MacLennan
S:Pipe Major Donald Macleod's Collection of Music for the Highland Bagpipe Book 3
B:my copy, formerly Jimmy Greenan's
R:Reel
M:C|
L:1/8
Q:1/2=88
K:Hp
a|:{cd}c2 {g}B<{d}A {gcd}c>B{G}B>a|     e>f{g}e>B      {d}c<e{g}f2  |\
  {gcd}c2 {g}B<{d}A {gcd}c>B{G}B>a| {fg}f2 {g}eB       {d}c<e{g}f<a:|
   {fg}f2 {g}ec          a>e{g}c<e|{gcd}c2 {g}B<{d}A {gcd}c>B{G}B>a |\
   {fg}f2 {g}ec          a>e{g}c<e|{GdG}f2 {g}eB       {d}c<e{A}e>a |
   {fg}f2 {g}ec          a>e{g}c<e|{gcd}c2 {g}B<{d}A {gcd}c>B{G}B>a |\
       f<aef          {g}ef{g}ce  |{GdG}f2 {g}eB       {d}c<e{A}e2 |]
